X: 1
T: Stone Of Destiny
R: reel
M: 4/4
L: 1/8
K: Gmaj
BddB G2Bd|d2 Bd edBA|BddB GABd|gedB BA A>e|
edBA BGGA|BGAG EGG2|DG (3GFG DGBe|dBAB G2 z2:||
edBA BGGA|BGAG EGG>e|edBA BGGA|BddB A2 ze|
edBA BGGA|BGAG EGG2|DG(3GFG DGBe|dBAB G2 z2:||


Tune 804	Setting 26677

